X:1
T:Title
%%score { ( 1 3 ) | ( 2 4 ) }
L:1/8
M:4/4
K:Ab
V:1 treble nm="Grand Piano"
V:3 treble 
V:2 treble 
V:4 treble 
V:1
 z4 z z/[Q:1/4=100] E/ c>B | A6[K:bass][K:treble] z2 | G6 d>d | G6[K:bass][K:treble] z2 | %4
[M:11/16] A/-A/-A/-A/-A-<A[CA]3/2 |[M:5/16] E<cB/ |[M:4/4] A6[K:bass][K:treble] z2 | %7
 d6[K:bass][K:treble] z2 | c6[K:bass][K:treble] z2 | %9
[M:11/16] [CA]/-[CA]/-[CA]/-[CA]/-[CA]-<[CA] z/ z |[M:5/16] A<GA/ |[M:4/4] B6 z2 | A6 z2 | d4 z4 | %14
 c6 z2 | B2 [Ge]>[Ge] [Gf]e e>d | c6 z2 | %17
 [FB]2 [Fd]>[Fd] G2 c>B[Q:1/4=98][Q:1/4=96][Q:1/4=94][Q:1/4=92][Q:1/4=90][Q:1/4=88][Q:1/4=85][Q:1/4=83][Q:1/4=81][Q:1/4=79][Q:1/4=77] | %18
[M:11/16] [CA]/-[CA]/-[CA]/-[CA]/-[CA]-<[CA] z/ z |] %19
V:2
 z4 z z/ C/ E>D | C4- C>A, C>C | B,3- B,/B,/- B,2[K:treble] z2 | D6 E>E | %4
[M:11/16][K:bass] C/-C/-C/-C/-C-<C z/ z |[M:5/16][K:treble] C<ED/ |[M:4/4] C4- C>E G>G | F6 F>F | %8
 E4- E>=D[K:bass] [E,,E,]2 |[M:11/16] [A,,E,]/-[A,,E,]/-[A,,E,]/-[A,,E,]/-[A,,E,]-<[A,,E,] z/ z | %10
[M:5/16] z5/2 |[M:4/4] z z/ [E,D]/ [E,D]>[E,D] .[E,D]2 z2 | z z/ A,,/ A,,>A,, A,,2 A,2 | %13
 [D,A,]>[D,A,] [D,A,]>[D,A,] [D,A,]>[D,A,] [D,A,]>[D,A,] | [A,E]2 [E,A,]>[C,A,] [A,,A,]2 [A,E]2 | %15
 [E,G,E]2 [E,B,]>[E,B,] [E,D][E,CE] [E,CE]>[E,B,E] | [A,E]2 A,>A, A,2 [A,E]>[A,E] | %17
 [D,D]2 [D,B,]>[D,B,] [E,B,E]2 [E,A,E]>[E,G,D] | %18
[M:11/16] [A,,A,]/-[A,,A,]/-[A,,A,]/-[A,,A,]/-[A,,A,]-<[A,,A,] z/ z |] %19
V:3
 x8 | z z/[K:bass] A,,/ C,>E, .A,>C[K:treble] E>A | x8 | z2[K:bass] (3E,G,B, E,2[K:treble] c>c | %4
[M:11/16] x11/2 |[M:5/16] x5/2 |[M:4/4] z z/[K:bass] A,,/ C,>E, .A,>[K:treble]c e>e | %7
 z z/[K:bass] D,/ F,>A,[K:treble] D2 d>d | z2[K:bass] C,>E, .A,>[K:treble]_c [E=c]>[DB] | %9
[M:11/16] x11/2 |[M:5/16] x5/2 |[M:4/4] z z/ G/ G>G .G>d F>G | z z/ [CE]/ [CE]>[CE] [CE]2 [CEA]2 | %13
 F>F F>[Fd] [Fe]>[Fd] [FA]>[=EB] | z z/ A,/ E>E E2 c2 | x8 | z2 E>E E2 c>c | x8 |[M:11/16] x11/2 |] %19
V:4
 x8 | x8 | z z/ E,/ G,2 E,2[K:treble] F>F | x8 |[M:11/16][K:bass] z/ z/ z C,/E,A,<A,, | %5
[M:5/16][K:treble] x5/2 |[M:4/4] x8 | x8 | x6[K:bass] x2 |[M:11/16] x11/2 |[M:5/16] x5/2 | %11
[M:4/4] x8 | x8 | x8 | x8 | x8 | x8 | x8 |[M:11/16] x11/2 |] %19

